X: 1
T: Juniper Hill
C: Trad
R: Jig
L: 1/8
M: 6/8
K: G
Z: ABC transcription by Verge Roller
|: Bc | "G" dBG "D" cAF | "G" GBd g2 f | "C" edc "Am" BAG | "D" FAA ABc |
"G" dBG "D" cAF | "G" GBd "Em" g2 b | "A" agf "A7" ed^c | "D" d3 d :|
|: fg | "D" afd dfg | "D" afd "G" g2 B | "C" cec "G" BdB | "D" cAA ABc |
"G" dBd "C" ece | "D" fdf "Em" gfe | "G" dcB "D" AGF | "G" G3 G :|
r: 32
